_icons/iconDraculaDarkSmall.svg

<svg width="25" height="25" viewBox="0 0 25 25" version="1.1" xmlns="http://www.w3.org/2000/svg" xmlns:xlink="http://www.w3.org/1999/xlink" xml:space="preserve" style="fill-rule:evenodd;clip-rule:evenodd;stroke-linejoin:round;stroke-miterlimit:2;">
    <path d="M4.903,0c0.937,-0 1.697,0.76 1.697,1.697l0,23.303l-2.33,0c-1.132,0 -2.219,-0.45 -3.019,-1.251c-0.801,-0.8 -1.251,-1.887 -1.251,-3.019l-0,-19.033c0,-0.937 0.76,-1.697 1.697,-1.697l3.206,0Zm20.097,0l0,2.022c-0,1.214 -0.482,2.378 -1.341,3.237c-0.859,0.859 -2.023,1.341 -3.237,1.341l-11.042,0c-0.928,-0 -1.68,-0.752 -1.68,-1.68l0,-3.24c0,-0.928 0.752,-1.68 1.68,-1.68l15.62,0Z" style="fill:#282a36;"/>
    <path d="M17.936,12.223c0.219,0.109 0.358,0.332 0.358,0.577c-0,0.245 -0.139,0.468 -0.358,0.577l-9.273,4.596c-0.207,0.102 -0.452,0.091 -0.648,-0.031c-0.196,-0.122 -0.315,-0.336 -0.315,-0.566l-0,-9.152c0,-0.23 0.119,-0.444 0.315,-0.566c0.196,-0.122 0.441,-0.133 0.648,-0.031l9.273,4.596Z" style="fill:#282a36;"/>
</svg>

<svg width="25" height="25" xmlns="http://www.w3.org/2000/svg" xml:space="preserve" style="fill-rule:evenodd;clip-rule:evenodd;stroke-linejoin:round;stroke-miterlimit:2"><path d="M4.903 0C5.84 0 6.6.76 6.6 1.697V25H4.27A4.268 4.268 0 0 1 0 20.73V1.697C0 .76.76 0 1.697 0h3.206zM25 0v2.022A4.577 4.577 0 0 1 20.422 6.6H9.38A1.68 1.68 0 0 1 7.7 4.92V1.68C7.7.752 8.452 0 9.38 0H25zM17.936 12.223a.645.645 0 0 1 0 1.154l-9.273 4.596a.668.668 0 0 1-.963-.597V8.224a.667.667 0 0 1 .963-.597l9.273 4.596z" style="fill:#282a36"/></svg>
